X:46
T:Jack Pudding. (p)1651.PLFD.046
T:Merry Andrew. (p)1651.PLFD.046
M:6/4
L:1/4
Q:3/4=100
S:Playford, Dancing Master,1st Ed.,1651.
O:England
H:1651.
Z:Chris Partington.
K:Gm
D|G2 G A2 G|B G2 c2 G|d B2 A2 G|G3-G2 :||:
g|f d2 e2 c|d B2 c2 A|B G2 A F2|B3-B2 B|
c A2 d2 A|^F D2 B2 c|d B2 c A2|G3-G2:|
